!!!OTL: Der Koenigin Luise Abschied WILHELM KOMM AN MEINE SEITE
!!!ARE: Europa, Mitteleuropa, Deutschland
!!!SCT: Z0042
!!!YEM: Copyright 1995, estate of Helmut Schaffrath.
**kern
*ICvox
*Ivox
*M3/4
*k[b-e-]
*B-:
{8f
8a
=1
4.b-
8f
8g
8a
=2
8b-
8f
8f}
{8f
8b-
8dd
=3
4.cc
8a
8b-
8cc
=4
2a}
{8f
8f
=5
8ee-
8dd
8cc
8b-
8ff
8b-
=6
8b-
8a
8g
8f}
{8d
8f
=7
4b-
4ff
8ee-
8cc
=8
2b-}
==
!!!AGN: Sagen - Lied, Romanze
!!!ONB: ESAC (Essen Associative Code) Database: ZUCCAL
!!!AMT: simple triple
!!!AIN: vox
!!!EED: Helmut Schaffrath
!!!EEV: 1.0
*-
